public/assets/icons/profile.svg

<svg fill="none" height="20" viewBox="0 0 20 20" width="20" xmlns="http://www.w3.org/2000/svg"><g stroke="#2d3748" stroke-linecap="round" stroke-linejoin="round" stroke-width="1.5"><path d="m15.1171 18.0167c-.7333.2167-1.6.3167-2.6166.3167h-5.00005c-1.01666 0-1.88333-.1-2.61666-.3167.18333-2.1666 2.40833-3.875 5.11671-3.875 2.7083 0 4.9333 1.7084 5.1166 3.875z"/><path d="m12.5003 1.66663h-4.99997c-4.16667 0-5.83334 1.66666-5.83334 5.83333v5.00004c0 3.15.95 4.875 3.21667 5.5166.18333-2.1666 2.40833-3.875 5.11664-3.875 2.7084 0 4.9334 1.7084 5.1167 3.875 2.2667-.6416 3.2167-2.3666 3.2167-5.5166v-5.00004c0-4.16667-1.6667-5.83333-5.8334-5.83333zm-2.5 10.14167c-1.64997 0-2.98331-1.3417-2.98331-2.99166 0-1.65 1.33334-2.98335 2.98331-2.98335 1.65 0 2.9834 1.33335 2.9834 2.98335 0 1.64996-1.3334 2.99166-2.9834 2.99166z"/><path d="m12.9833 8.81672c0 1.64998-1.3334 2.99168-2.98336 2.99168-1.65 0-2.98334-1.3417-2.98334-2.99168 0-1.65 1.33334-2.98335 2.98334-2.98335 1.64996 0 2.98336 1.33335 2.98336 2.98335z"/></g></svg>

<svg width="20" height="20" viewBox="0 0 20 20" fill="none" xmlns="http://www.w3.org/2000/svg">
<path d="M15.1171 18.0167C14.3838 18.2334 13.5171 18.3334 12.5005 18.3334H7.50045C6.48379 18.3334 5.61712 18.2334 4.88379 18.0167C5.06712 15.8501 7.29212 14.1417 10.0005 14.1417C12.7088 14.1417 14.9338 15.8501 15.1171 18.0167Z" stroke="#2D3748" stroke-width="1.5" stroke-linecap="round" stroke-linejoin="round"/>
<path d="M12.5003 1.66663H7.50033C3.33366 1.66663 1.66699 3.33329 1.66699 7.49996V12.5C1.66699 15.65 2.61699 17.375 4.88366 18.0166C5.06699 15.85 7.29199 14.1416 10.0003 14.1416C12.7087 14.1416 14.9337 15.85 15.117 18.0166C17.3837 17.375 18.3337 15.65 18.3337 12.5V7.49996C18.3337 3.33329 16.667 1.66663 12.5003 1.66663ZM10.0003 11.8083C8.35033 11.8083 7.01699 10.4666 7.01699 8.81664C7.01699 7.16664 8.35033 5.83329 10.0003 5.83329C11.6503 5.83329 12.9837 7.16664 12.9837 8.81664C12.9837 10.4666 11.6503 11.8083 10.0003 11.8083Z" stroke="#2D3748" stroke-width="1.5" stroke-linecap="round" stroke-linejoin="round"/>
<path d="M12.9833 8.81672C12.9833 10.4667 11.6499 11.8084 9.99994 11.8084C8.34994 11.8084 7.0166 10.4667 7.0166 8.81672C7.0166 7.16672 8.34994 5.83337 9.99994 5.83337C11.6499 5.83337 12.9833 7.16672 12.9833 8.81672Z" stroke="#2D3748" stroke-width="1.5" stroke-linecap="round" stroke-linejoin="round"/>
</svg>
